svgs/sharp-solid/taxi-bus.svg

<svg xmlns="http://www.w3.org/2000/svg" viewBox="0 0 640 512"><!--! Font Awesome Pro 6.6.0 by @fontawesome - https://fontawesome.com License - https://fontawesome.com/license (Commercial License) Copyright 2024 Fonticons, Inc. --><path d="M192 0C299 0 384 38.4 384 38.4L384 64l0 32-64 0L208 96l0 128 33.9 0-10.7 32L192 256l0 160-64 0 0 64-80 0 0-64L0 416 0 96s0 0 0 0L0 38.4S85 0 192 0zM384 224l-40.9 0-21.3 64 62.3 0 158.3 0-21.3-64L384 224zM224 288l30.3 0 21.3-64 14-42.1 7.3-21.9 23.1 0 48 0 0-32 128 0 0 32 48 0 23.1 0 7.3 21.9L609.7 288l30.3 0 0 160 0 64-80 0 0-64-256 0 0 64-80 0 0-64s0 0 0 0l0-160zM64 96l0 128 112 0 0-128L64 96zM80 328a24 24 0 1 0 0-48 24 24 0 1 0 0 48zm248 40a24 24 0 1 0 -48 0 24 24 0 1 0 48 0zm256 0a24 24 0 1 0 -48 0 24 24 0 1 0 48 0z"/></svg>

<svg xmlns="http://www.w3.org/2000/svg" viewBox="0 0 640 512"><!--! Font Awesome Pro 6.4.2 by @fontawesome - https://fontawesome.com License - https://fontawesome.com/license (Commercial License) Copyright 2023 Fonticons, Inc. --><path d="M192 0C299 0 384 38.4 384 38.4L384 64V96H320 208V224h33.9l-10.7 32H192l0 160H128v64H48V416H0V96H0V38.4S85 0 192 0zM384 224H343.1l-21.3 64H384 542.3l-21.3-64H384zM224 288h30.3l21.3-64 14-42.1 7.3-21.9H320h48V128H496v32h48 23.1l7.3 21.9L609.7 288H640l0 160v64H560V448H304v64H224V448h0l0-160zM64 96V224H176V96H64zM80 328a24 24 0 1 0 0-48 24 24 0 1 0 0 48zm248 40a24 24 0 1 0 -48 0 24 24 0 1 0 48 0zm256 0a24 24 0 1 0 -48 0 24 24 0 1 0 48 0z"/></svg>
